!!!!SEGMENT: pl-kk--kk-i-1--044_anonim--alleluia-vox-exultationis.krn
!!!cenid: 15xx:757
!!!COM: Anonim
!!!COM-rismID: pe30004985
!!!CDT:
!!!CNT:
!!!OTL: Alleluia, vox exultationis
!!!PDT:
!!!AGN:
!!!SMS-siglum: PL-Kk
!!!SMS-shelfmark: Kk.I.1
!!!SMS-shelfwork: 044 W
!!!SMS-variant:
!!!SMS-altvar:
!!!NIFC-rismSourceID: 300257998
!!!NIFC-islandoraID: pl-kk:1
!!!URL-pdf-islandora: https://repozytorium.nifc.pl/islandora/object/pl-kk%3A1/datastream/PDF/view
!!!URL-scan: https://polish.musicsources.pl/pl/lokalizacje/galeria/rekopisy/5736 @EN{Scan on Polish Music Herritage in Open Access Website} @PL{Skany w portalu Dziedzictwo Muzyki Polskiej w otwartym dostępie}
!!!ONB-nifc: UWAGA: Cantus (s. 141v-142r, skan 0144), Altus (s. 136v-137r, skan 0330), Tenor (s. 116r-v, skan 0506-0507), Bassus (s. 129r-v, skan 0691-0692).
!!!AIN: 1 alto 1 bass 1 soprn 1 tenor
!!!key: F
**kern	**text	**kern	**text	**kern	**text	**kern	**text
*part4	*part4	*part3	*part3	*part2	*part2	*part1	*part1
*staff4	*staff4	*staff3	*staff3	*staff2	*staff2	*staff1	*staff1
*I"BASSVS	*	*I"TENOR	*	*I"ALTVS	*	*I"CANTVS	*
*I'B	*	*I'T	*	*I'A	*	*I'C	*
*ICvox	*	*ICvox	*	*ICvox	*	*ICvox	*
*Ibass	*	*Itenor	*	*Ialto	*	*Isoprn	*
*clefF4	*	*clefC4	*	*clefC4	*	*clefC3	*
*k[b-]	*	*k[b-]	*	*k[b-]	*	*k[b-]	*
*F:	*	*F:	*	*F:	*	*F:	*
*M2/1	*	*M2/1	*	*M2/1	*	*M2/1	*
*met(c|)	*	*met(c|)	*	*met(c|)	*	*met(c|)	*
=1	=1	=1	=1	=1	=1	=1	=1
1r	.	1C	Al-	1G	Al-	0c	Al-
1FF	A-	0F	-le-	1A	-le-	.	.
=2	=2	=2	=2	=2	=2	=2	=2
2BB-/	-lle-	.	.	2B-\	.	4d\	-le-
.	.	.	.	.	.	4e\	.
2D/	.	.	.	4A\	-lu-	1f	.
.	.	.	.	4B-\	-ia	.	.
*	*	*lig	*	*	*	*	*
1C	.	1G	.	2c\	.	.	.
.	.	.	.	2C/	.	2e\	.
=3	=3	=3	=3	=3	=3	=3	=3
1BB-	-lu-	1B-	.	4D/	.	1d	-lu-
.	.	.	.	4E/	.	.	.
.	.	.	.	1F	.	.	.
*	*	*Xlig	*	*	*	*	*
*	*	*lig	*	*	*	*	*
1C	-ia	1G	.	.	.	2c/	-ia
*	*	*	*	*	*	*	*ij
.	.	.	.	2E/	.	2G/	al-
=4	=4	=4	=4	=4	=4	=4	=4
1FF	.	1F	.	2D/	.	4A/	.
.	.	.	.	.	.	4B-/	.
.	.	.	.	2C/	.	1c	.
*	*	*Xlig	*	*	*	*	*
*	*ij	*lig	*	*	*	*	*
2r	.	1F	-lu-	1D	.	.	.
1F	al-	.	.	.	.	2B-/	.
=5	=5	=5	=5	=5	=5	=5	=5
.	.	1G	.	1C	.	1c	.
2E\	.	.	.	.	.	.	.
*	*	*Xlig	*	*	*	*	*
2D/	.	1B-	.	1.F	.	1d	.
2BB-/	.	.	.	.	.	.	.
=6	=6	=6	=6	=6	=6	=6	=6
*	*	*lig	*	*	*	*	*
1C	.	1G	.	.	.	1c	.
.	.	.	.	2E/	.	.	.
*	*	*	*	*custos:C	*	*	*
2BB-/	-le-	1B-	.	1D	.	2F/	-le-
2GG/	.	.	.	.	.	1G	.
!	!	!	!	!LO:LB:g=original	!	!	!
*	*	*Xlig	*	*	*	*	*
=7	=7	=7	=7	=7	=7	=7	=7
*	*	*lig	*	*	*	*	*
2AA/	.	1A	-ia	2C/	.	.	.
2FF/	.	.	.	2c\	.	1F	.
1C	-lu-	1G	.	1c	.	.	.
.	.	.	.	.	.	2E/	-lu-
*	*	*Xlig	*	*	*	*	*
=8	=8	=8	=8	=8	=8	=8	=8
*custos:BB-	*	*	*	*	*	*	*
*	*	*lig	*	*	*	*	*
*	*	*	*	*	*	*custos:B-	*
0BB-	-ia	1B-	.	2d\	.	1F	-ia
.	.	.	.	2.d\	.	.	.
!	!	!	!	!	!	!LO:LB:g=original	!
.	.	1F	.	.	.	2.B-/	al-
.	.	.	.	4c\	.	.	.
.	.	.	.	4B-\	.	.	.
.	.	.	.	4A\	.	4c\	.
!LO:LB:g=original	!	!	!	!	!	!	!
*	*	*Xlig	*	*	*	*	*
=9	=9	=9	=9	=9	=9	=9	=9
*	*	*lig	*	*	*	*	*
2r	.	1B-	.	4B-\	.	4d\	.
.	.	.	.	4c\	.	4e\	.
2BB-/	al-	.	.	2d\	.	1f	.
1C	-le-	1G	.	1c	.	.	.
.	.	.	.	.	.	2e\	-le-
*	*	*Xlig	*	*	*	*	*
=10	=10	=10	=10	=10	=10	=10	=10
*	*	*custos:C	*	*	*	*	*
!	!	!LO:TX:t=P:problem=w źródle 0 zamiast 00. - błąd wyświetlania	!	!	!	!	!
!	!	!LO:N:vis=0	!	!	!	!	!
2.D/	-lu-	00.F;	.	1A	.	2.f\	-lu-
4C/	.	.	.	.	.	4e\	.
2BB-/	.	.	.	2B-\	.	2d\	.
2AA/	.	.	.	1c	.	2c/	.
!	!	!LO:LB:g=original	!	!	!	!	!
=11	=11	=11	=11	=11	=11	=11	=11
1BB-	.	.	.	.	.	1d	.
.	.	.	.	1B-	.	.	.
0.FF;	-ia	.	.	.	.	0.c;	-ia
.	.	.	.	4A\	.	.	.
.	.	.	.	4G\	.	.	.
*	*Xij	*	*	*	*	*	*Xij
=12	=12	=12	=12	=12	=12	=12	=12
.	.	.	.	0A;<	.	.	.
=13	=13	=13	=13	=13	=13	=13	=13
*	*	*lig	*	*	*	*	*
1r	.	1C	Vox	1r	.	0c	Vox
*lig	*	*	*	*	*	*	*
1FF	Vox	1F	.	1A	Vox	.	.
*	*	*Xlig	*	*	*	*	*
=14	=14	=14	=14	=14	=14	=14	=14
*	*	*lig	*	*	*	*	*
1C	.	1E	.	1G	.	1.c	e-
*Xlig	*	*	*	*	*	*	*
2r	.	1F	.	2A/	e-	.	.
1BB-	e-	.	.	1B-	-xul-	1d	-xul-
*	*	*Xlig	*	*	*	*	*
=15	=15	=15	=15	=15	=15	=15	=15
.	.	1F	e-	.	.	.	.
2D/	-xul-	.	.	1A	.	2d\	-ta-
*	*	*lig	*	*	*	*	*
2F\	.	1A	.	.	.	2c/	.
4E\	-ta-	.	.	4G/	.	1f	-ti-
*	*	*	*	*custos:G	*	*	*
4D/	-ti-	.	.	4F/	-ta-	.	.
!	!	!	!	!LO:LB:g=original	!	!	!
=16	=16	=16	=16	=16	=16	=16	=16
1C	-o-	1c	.	1G	-ti-	.	.
*	*	*	*	*	*	*custos:f	*
.	.	.	.	.	.	2e\	-o-
*	*	*Xlig	*	*	*	*	*
*	*	*lig	*	*	*	*	*
!	!	!	!	!	!	!LO:LB:g=original	!
2FF/	-nis	1A	-xul-	1F	-o-	2f\	-nis
*	*	*	*	*	*	*	*ij
1F	.	.	.	.	.	2c/	vox
=17	=17	=17	=17	=17	=17	=17	=17
.	.	1G	.	2C/	-nis	2c/	e-
*	*	*	*	*	*ij	*	*
2E\	.	.	.	1c	vox	1g	-xul-
*custos:F	*	*	*	*	*	*	*
*	*	*Xlig	*	*	*	*	*
*	*ij	*lig	*	*	*	*	*
2F\	e-	1A	.	.	.	.	.
!LO:LB:g=original	!	!	!	!	!	!	!
2A\	.	.	.	2c\	e-	1f	-ta-
=18	=18	=18	=18	=18	=18	=18	=18
1G	.	1B-	.	2d\	-xul-	.	.
.	.	.	.	4c\	-ta-	2e\	-ti-
.	.	.	.	4B-\	.	.	.
*	*	*Xlig	*	*	*	*	*
*	*	*lig	*	*	*	*	*
1F	.	1A	.	1c	-ti-	1f	-o-
=19	=19	=19	=19	=19	=19	=19	=19
1C	-xul-	1G	.	1c	-o-	1e	-nis
*	*	*Xlig	*	*	*	*	*Xij
2D/	.	2.F/	-ta-	1A	-nis	2r	.
1F	-ta-	.	.	.	.	2c/	.
.	.	4G/	.	.	.	.	.
=20	=20	=20	=20	=20	=20	=20	=20
.	.	2A/	.	1r	.	1c	.
2E\	.	2G/	.	.	.	.	.
4D/	.	2A/	.	2F/	vox	2.d\	.
4C/	.	.	.	.	.	.	.
4BB-/	.	2.B-\	-ti-	2.G/	e-	.	.
4AA/	.	.	.	.	.	4c/	.
=21	=21	=21	=21	=21	=21	=21	=21
2GG/	-ti-	.	.	.	.	2B-/	.
.	.	4A/	.	4F/	.	.	.
2AA/	.	1A	-o-	2E/	-xul-	2c/	.
1BB-	-o-	.	.	2.D/	-ta-	1d	.
.	.	2G/	-nis	.	.	.	.
.	.	.	.	4E/	.	.	.
=22	=22	=22	=22	=22	=22	=22	=22
*	*	*custos:F	*	*	*	*	*
1AA	-nis	1A	.	2F/	-ti-	2c/	.
.	.	.	.	2E/	-o-	2c/	e(t)
*	*Xij	*	*	*	*	*	*
!	!	!LO:LB:g=original	!	!	!	!	!
2r	.	1F	Et	1D	-nis	2d\	.
1D	e(t)	.	.	.	.	4f\	ſa-
.	.	.	.	.	.	4e\	.
*	*	*	*	*	*Xij	*	*
=23	=23	=23	=23	=23	=23	=23	=23
*	*	*lig	*	*	*	*	*
.	.	1A	ſa-	2r	.	4d\	.
.	.	.	.	.	.	4c\	-lu-
2D/	ſa-	.	.	2F/	e(t)	2.f\	.
1C	-lu-	1c	.	1G	ſa-	.	.
.	.	.	.	.	.	8e\L	.
.	.	.	.	.	.	8d\J	.
.	.	.	.	.	.	2e\	.
*	*	*	*	*	*	*custos:f	*
*	*	*Xlig	*	*	*	*	*
=24	=24	=24	=24	=24	=24	=24	=24
*	*	*lig	*	*	*	*	*
2FF/	-tis	1c	-lu-	2.A\	.	1f	-tis
*	*ij	*	*	*	*	*	*
2F\	e(t)	.	.	.	.	.	.
*	*	*	*	*custos:c	*	*	*
.	.	.	.	4B-\	.	.	.
!	!	!	!	!LO:LB:g=original	!	!	!
2F\	ſa-	1A	.	4c\	.	2r	.
.	.	.	.	4B-\	.	.	.
*	*	*	*	*	*	*	*ij
2F\	-lu-	.	.	4A\	.	2c/	e(t)
.	.	.	.	4G\	.	.	.
*	*	*Xlig	*	*	*	*	*
=25	=25	=25	=25	=25	=25	=25	=25
*	*	*lig	*	*	*	*	*
1C	-tis	1c	.	4A\	.	1e	.
.	.	.	.	4G\	.	.	.
.	.	.	.	1c	.	.	.
1r	.	1G	.	.	.	2.d\	ſa-
.	.	.	.	2B-\	-lu-	.	.
.	.	.	.	.	.	4e\	.
*	*Xij	*Xlig	*	*	*	*	*
=26	=26	=26	=26	=26	=26	=26	=26
2r	.	2.F/	.	2c\	-tis	2f\	.
*custos:D	*	*	*	*	*	*	*
*	*	*	*	*	*ij	*	*
2F\	.	.	.	2A/	e(t)	2c/	.
.	.	4G/	.	.	.	.	.
!LO:LB:g=original	!	!	!	!	!	!	!
2D/	.	2A/	.	2F/	ſa-	2d\	.
2G\	.	2B-\	.	2G/	.	2e\	.
=27	=27	=27	=27	=27	=27	=27	=27
2F\	.	2c\	.	2A/	.	2f\	.
1BB-	e(t)	1d	.	1B-	.	1f	-lu-
2FF/	ſa-	2c\	.	2A/	.	2f\	.
=28	=28	=28	=28	=28	=28	=28	=28
4GG/	.	1B-	.	1G	.	1d	-tis
*	*	*	*	*	*	*	*Xij
4AA/	-lu-	.	.	.	.	.	.
4BB-/	.	.	.	.	.	.	.
4C/	-tis	.	.	.	.	.	.
1D	.	2A/	-tis	1F	.	1d	.
.	.	2A/	in	.	.	.	.
=29	=29	=29	=29	=29	=29	=29	=29
2r	.	1D	ta-	2.A/	-lu-	1d	in
1D	in	.	.	.	.	.	.
.	.	.	.	4G/	.	.	.
.	.	1A	-ber-	2F/	.	2A/	ta-
2AA/	ta-	.	.	2E/	.	2c/	.
=30	=30	=30	=30	=30	=30	=30	=30
*	*	*lig	*	*	*	*	*
1D	-ber-	1A	-na-	2D/	-tis	4d\	-ber-
.	.	.	.	.	.	4e\	.
*	*	*	*	*	*Xij	*	*
.	.	.	.	1d	in	1f	-na-
*	*	*custos:B-	*	*	*	*	*
2BB-/	-na-	1G	.	.	.	.	.
2C/	-cu-	.	.	2G/	ta-	2e\	-cu-
!	!	!LO:LB:g=original	!	!	!	!	!
*	*	*Xlig	*	*	*	*	*
=31	=31	=31	=31	=31	=31	=31	=31
*	*	*lig	*	*	*	*	*
*	*	*	*	*custos:c	*	*	*
2GG/	-lis.	1B-	.	1d	-ber-	2d\	-liſ
*	*	*	*	*	*	*custos:d	*
!	!	!	!	!LO:LB:g=original	!	!	!
2G\	.	.	.	.	.	2B-/	.
!	!	!	!	!	!	!LO:LB:g=original	!
2C/	.	1G	.	2c\	-na-	2r	.
*	*	*	*	*	*	*	*ij
2G\	.	.	.	2B-\	-cu-	1d	in
*	*	*Xlig	*	*	*	*	*
=32	=32	=32	=32	=32	=32	=32	=32
*	*	*lig	*	*	*	*	*
1.D	.	1F	.	2A/	-lis	.	.
.	.	.	.	1F	.	2A/	ta-
.	.	1A	.	.	.	2d\	-ber-
2C/	.	.	.	2E/	.	2e\	.
*	*	*Xlig	*	*	*	*	*
=33	=33	=33	=33	=33	=33	=33	=33
2BB-/	.	4D/	.	2.D/	.	2.f\	-na-
.	.	4E/	.	.	.	.	.
1D	.	4F/	.	.	.	.	.
.	.	4G/	.	4E/	.	4e\	.
.	.	2A/	.	2F/	.	2.d\	.
*custos:D	*	*	*	*	*	*	*
2GG/	.	2.B-\	.	2G/	.	.	.
.	.	.	.	.	.	4c/	.
!LO:LB:g=original	!	!	!	!	!	!	!
=34	=34	=34	=34	=34	=34	=34	=34
2D/	.	.	.	2F/	.	2B-/	-cu-
.	.	4A/	.	.	.	.	.
2C/	.	1A	.	2E/	.	2c/	.
1BB-	.	.	.	2F/	.	1d	-liſ
.	.	2G/	-cu-	2D/	iu-	.	.
*	*	*	*	*	*	*	*Xij
=35	=35	=35	=35	=35	=35	=35	=35
1AA	.	1A	-lis	2.E/	-ſto-	1c	.
.	.	.	.	4F/	.	.	.
4GG/	iu-	1D	iu-	2G/	.	1r	.
4AA/	.	.	.	.	.	.	.
4BB-/	.	.	.	4F/	.	.	.
4C/	.	.	.	4E/	.	.	.
=36	=36	=36	=36	=36	=36	=36	=36
1D	.	1F	-ſto-	4D/	.	1A	iu-
.	.	.	.	4C/	.	.	.
.	.	.	.	1F	.	.	.
*	*	*lig	*	*	*	*	*
1C	-ſto-	1G	.	.	.	1c	-ſto-
.	.	.	.	2E/	.	.	.
=37	=37	=37	=37	=37	=37	=37	=37
1BB-	-rum,	1B-	.	2F/	-rum	4d\	.
.	.	.	.	.	.	4e\	.
*	*	*	*	*	*ij	*	*
.	.	.	.	2F/	iu-	4f\	.
.	.	.	.	.	.	4d\	.
*	*	*	*	*custos:c	*	*	*
*	*	*Xlig	*	*	*	*	*
*	*ij	*lig	*	*	*	*	*
2r	.	1A	.	1c	.	2e\	.
2FF/	in	.	.	.	.	1f	.
!	!	!	!	!LO:LB:g=original	!	!	!
=38	=38	=38	=38	=38	=38	=38	=38
1C	ta-	1G	.	1c	-ſto-	.	.
.	.	.	.	.	.	2e\	-rum
*	*	*Xlig	*	*	*	*	*ij
4BB-/	-ber-	1B-	.	1d	.	1f	.
4C/	.	.	.	.	.	.	.
4D/	.	.	.	.	.	.	.
4E/	.	.	.	.	.	.	.
=39	=39	=39	=39	=39	=39	=39	=39
2F\	-na-	2A/	.	2.c\	.	2f\	iu-
2C/	-cu-	2.G/	.	.	.	2e\	.
.	.	.	.	4B-\	.	.	.
2D/	-lis	.	.	2A/	.	2d\	.
.	.	4F/	.	.	.	.	.
2BB-/	iu-	1F	.	2B-\	.	2d\	-ſto-
=40	=40	=40	=40	=40	=40	=40	=40
1C	-ſto-	.	.	1G	.	1c	.
.	.	2E/	.	.	.	.	.
!LO:N:vis=0	!	!LO:N:vis=0	!	!LO:N:vis=0	!	!LO:N:vis=0	!
1FF;	-rum	1F;	-rum	1A;<	-rum	1c;<	-rum
==	==	==	==	==	==	==	==
*-	*-	*-	*-	*-	*-	*-	*-
!!!system-decoration: [(s1,s2,s3,s4)]
!!!RDF**kern: < = below
!!!RDF**kern: > = above
!!!ENC: Mateusz Solarz
!!!END: 2022-03-08
!!!ENC: Jan Barakat
!!!END: 2022-03-14
